Obsidian-SemiLight/actions/22s/transform-crop.svg

<svg viewBox="0 0 22 22" xmlns="http://www.w3.org/2000/svg"><path d="m3 3v2 1h3v-1-2h-2zm13 0v1 1 1h1 1 1v-1-1-1zm-12 1h1v1h-1zm13 0h1v1h-1zm-10 1v1h2v-1zm3 0v1h2v-1zm3 0v1h2v-1zm-8 2v2h1v-2zm11 0v2h1v-2zm-11 3v2h1v-2zm11 0v2h1v-2zm-11 3v2h1v-2zm11 0v2h1v-2zm-13 3v1 2h1 1 1v-3zm4 0v1h2v-1zm3 0v1h2v-1zm3 0v1h2v-1zm3 0v1 1 1h1 1 1v-1-1-1h-2zm-12 1h1v1h-1zm13 0h1v1h-1z" fill="#4d4d4d"/></svg>

<svg xmlns="http://www.w3.org/2000/svg" viewBox="0 0 22 22">
  <defs id="defs3051">
    <style type="text/css" id="current-color-scheme">
      .ColorScheme-Text {
        color:#4d4d4d;
      }
      </style>
  </defs>
 <path 
    style="fill:currentColor;fill-opacity:1;stroke:none" 
     d="M 3 3 L 3 5 L 3 6 L 6 6 L 6 5 L 6 3 L 4 3 L 3 3 z M 16 3 L 16 4 L 16 5 L 16 6 L 17 6 L 18 6 L 19 6 L 19 5 L 19 4 L 19 3 L 16 3 z M 4 4 L 5 4 L 5 5 L 4 5 L 4 4 z M 17 4 L 18 4 L 18 5 L 17 5 L 17 4 z M 7 5 L 7 6 L 9 6 L 9 5 L 7 5 z M 10 5 L 10 6 L 12 6 L 12 5 L 10 5 z M 13 5 L 13 6 L 15 6 L 15 5 L 13 5 z M 5 7 L 5 9 L 6 9 L 6 7 L 5 7 z M 16 7 L 16 9 L 17 9 L 17 7 L 16 7 z M 5 10 L 5 12 L 6 12 L 6 10 L 5 10 z M 16 10 L 16 12 L 17 12 L 17 10 L 16 10 z M 5 13 L 5 15 L 6 15 L 6 13 L 5 13 z M 16 13 L 16 15 L 17 15 L 17 13 L 16 13 z M 3 16 L 3 17 L 3 19 L 4 19 L 5 19 L 6 19 L 6 16 L 3 16 z M 7 16 L 7 17 L 9 17 L 9 16 L 7 16 z M 10 16 L 10 17 L 12 17 L 12 16 L 10 16 z M 13 16 L 13 17 L 15 17 L 15 16 L 13 16 z M 16 16 L 16 17 L 16 18 L 16 19 L 17 19 L 18 19 L 19 19 L 19 18 L 19 17 L 19 16 L 17 16 L 16 16 z M 4 17 L 5 17 L 5 18 L 4 18 L 4 17 z M 17 17 L 18 17 L 18 18 L 17 18 L 17 17 z "
	class="ColorScheme-Text"
    />  
</svg>
